packages/astro-components-stencil/src/icons/phone-android.svg

<svg xmlns="http://www.w3.org/2000/svg" viewBox="0 0 24 24"><g xmlns="http://www.w3.org/2000/svg" id="phone-android" fill-rule="nonzero">
            <path d="M16 1H8C6.34 1 5 2.34 5 4v16c0 1.66 1.34 3 3 3h8c1.66 0 3-1.34 3-3V4c0-1.66-1.34-3-3-3zm-2.5 20h-3c-.28 0-.5-.22-.5-.5s.22-.5.5-.5h3c.28 0 .5.22.5.5s-.22.5-.5.5zm3.5-3H7V4h10v14z"/>
        </g></svg>

<svg width="24" height="24" viewBox="0 0 24 24" fill="none" xmlns="http://www.w3.org/2000/svg">
<path fill-rule="evenodd" clip-rule="evenodd" d="M16 1H8C6.34 1 5 2.34 5 4V20C5 21.66 6.34 23 8 23H16C17.66 23 19 21.66 19 20V4C19 2.34 17.66 1 16 1ZM13.5 21H10.5C10.22 21 10 20.78 10 20.5C10 20.22 10.22 20 10.5 20H13.5C13.78 20 14 20.22 14 20.5C14 20.78 13.78 21 13.5 21ZM7 18H17V4H7V18Z" fill="black"/>
</svg>
